X: 07031
T: ELVIRA'S WALTZ
C: Bob McQuillen 29 Jan 89
B: Bob's Note Book 7 #31
%R: waltz
Z: 2021 John Chambers <jc:trillian.mit.edu>
M: 3/4
L: 1/4
K: Dm
A, \
| "Dm"D>EF | "Gm"GAB | "A7"AB>A | GFE | "Dm"D>EF | "Gm"GAB | "A&"A>BA | "A7"A=B^c |\
| "Dm"def | "F6"cef | "Bb"Bef | "Dm"Adf | af>d | "Am"cAc | "Dm"d3- | d2 :|
|: A \
| "D"d>^fa | "A7"ge^c | "D"d^f>a | "A7" ge^c | "Dm"dd>d | dcB | A3- | A2A |\
| "Gm"Bd>B | GAB | "Dm"AA>F | DFG | "A7"AB>A | GFE |"Dm"D3- | D2 :|
%%begintext align
%% Alvira Miller
%% is Jane Miller's (Roddy who?) pretty little
%% daughter - She's already started playing the
%% fiddle, and perhaps someday she'll play
%% this tune - With love to you, Elvira from Bob--
%%endtext

%%sep 1 1 500

%%sep 1 1 500

